vendor/shopware/storefront/Resources/app/storefront/dist/assets/icon/default/money-cash.svg

<svg xmlns="http://www.w3.org/2000/svg" width="24" height="24" viewBox="0 0 24 24">
  <path fill="#758CA3" fill-rule="evenodd" d="M12.9929475,7.11938344 C14.2703863,7.45344882 15,8.4742506 15,10 C15,10.5522847 14.5522847,11 14,11 C13.4477153,11 13,10.5522847 13,10 C13,9.21895142 12.7810486,9 12,9 C11.2189514,9 11,9.21895142 11,10 C11,10.2811287 11.3025119,10.533222 12.4472136,11.1055728 C14.3025119,12.033222 15,12.614462 15,14 C15,15.5257494 14.2703863,16.5465512 12.9929475,16.8806166 C12.9976044,16.919762 13,16.9596012 13,17 C13,17.5522847 12.5522847,18 12,18 C11.4477153,18 11,17.5522847 11,17 C11,16.9596012 11.0023956,16.919762 11.0070525,16.8806166 C9.72961374,16.5465512 9,15.5257494 9,14 C9,13.4477153 9.44771525,13 10,13 C10.5522847,13 11,13.4477153 11,14 C11,14.7810486 11.2189514,15 12,15 C12.7810486,15 13,14.7810486 13,14 C13,13.7188713 12.6974881,13.466778 11.5527864,12.8944272 C9.69748811,11.966778 9,11.385538 9,10 C9,8.4742506 9.72961374,7.45344882 11.0070525,7.11938344 C11.0023956,7.08023802 11,7.04039877 11,7 C11,6.44771525 11.4477153,6 12,6 C12.5522847,6 13,6.44771525 13,7 C13,7.04039877 12.9976044,7.08023802 12.9929475,7.11938344 Z M2,3 L22,3 C23.1045695,3 24,3.8954305 24,5 L24,19 C24,20.1045695 23.1045695,21 22,21 L2,21 C0.8954305,21 -8.67738547e-17,20.1045695 -2.22044605e-16,19 L-2.22044605e-16,5 C-3.57315355e-16,3.8954305 0.8954305,3 2,3 Z M2,5 L2,19 L22,19 L22,5 L2,5 Z"/>
</svg>

<svg xmlns="http://www.w3.org/2000/svg" width="24" height="24" viewBox="0 0 24 24"><path fill="#758CA3" fill-rule="evenodd" d="M12.993 7.1194C14.2703 7.4534 15 8.4743 15 10c0 .5523-.4477 1-1 1s-1-.4477-1-1c0-.781-.219-1-1-1s-1 .219-1 1c0 .2811.3025.5332 1.4472 1.1056C14.3025 12.0332 15 12.6145 15 14c0 1.5257-.7296 2.5466-2.007 2.8806.0046.0392.007.079.007.1194 0 .5523-.4477 1-1 1s-1-.4477-1-1c0-.0404.0024-.0802.007-.1194C9.7297 16.5466 9 15.5257 9 14c0-.5523.4477-1 1-1s1 .4477 1 1c0 .781.219 1 1 1s1-.219 1-1c0-.2811-.3025-.5332-1.4472-1.1056C9.6975 11.9668 9 11.3855 9 10c0-1.5257.7296-2.5466 2.007-2.8806A1.0103 1.0103 0 0 1 11 7c0-.5523.4477-1 1-1s1 .4477 1 1c0 .0404-.0024.0802-.007.1194zM2 3h20c1.1046 0 2 .8954 2 2v14c0 1.1046-.8954 2-2 2H2c-1.1046 0-2-.8954-2-2V5c0-1.1046.8954-2 2-2zm0 2v14h20V5H2z"/></svg>
